X:74
T: Annyi bánat a szívemen...
K: F
M: 2/4
L: 1/8
fggf | fggf | 
gfdc | BccB | 
BcdB | BcdB | 
cGGF | BB G2G2 | 

